svgs/light/car-side-bolt.svg

<svg xmlns="http://www.w3.org/2000/svg" viewBox="0 0 640 512"><!--! Font Awesome Pro 6.4.0 by @fontawesome - https://fontawesome.com License - https://fontawesome.com/license (Commercial License) Copyright 2023 Fonticons, Inc. --><path d="M126.8 94.2L87.6 192H160v32H64c-17.7 0-32 14.3-32 32V368H65.3c7.6-45.4 47.1-80 94.7-80s87.1 34.6 94.7 80H385.3c7.6-45.4 47.1-80 94.7-80s87.1 34.6 94.7 80H608V320c0-53-43-96-96-96H448V192h30.7l-88-110c-9.1-11.4-22.9-18-37.5-18H171.3c-19.6 0-37.3 11.9-44.6 30.2zM52.8 193L97.1 82.3C109.2 51.9 138.6 32 171.3 32H353.2c24.3 0 47.3 11 62.5 30L519.9 192.2C586.9 196.3 640 252 640 320v48c0 17.7-14.3 32-32 32H574.7c-7.6 45.4-47.1 80-94.7 80s-87.1-34.6-94.7-80H254.7c-7.6 45.4-47.1 80-94.7 80s-87.1-34.6-94.7-80H32c-17.7 0-32-14.3-32-32V256c0-31.5 22.8-57.7 52.8-63zM418 368c-1.3 5.1-2 10.5-2 16s.7 10.9 2 16c7.1 27.6 32.2 48 62 48s54.9-20.4 62-48c1.3-5.1 2-10.5 2-16s-.7-10.9-2-16c-7.1-27.6-32.2-48-62-48s-54.9 20.4-62 48zM96 384c0 5.5 .7 10.9 2 16c7.1 27.6 32.2 48 62 48s54.9-20.4 62-48c1.3-5.1 2-10.5 2-16s-.7-10.9-2-16c-7.1-27.6-32.2-48-62-48s-54.9 20.4-62 48c-1.3 5.1-2 10.5-2 16zM347.3 123.3L278.6 192H368c6.5 0 12.3 3.9 14.8 9.9s1.1 12.9-3.5 17.4l-96 96c-6.2 6.2-16.4 6.2-22.6 0s-6.2-16.4 0-22.6L329.4 224H240c-6.5 0-12.3-3.9-14.8-9.9s-1.1-12.9 3.5-17.4l96-96c6.2-6.2 16.4-6.2 22.6 0s6.2 16.4 0 22.6z"/></svg>

<svg xmlns="http://www.w3.org/2000/svg" viewBox="0 0 640 512"><!--! Font Awesome Pro 6.3.0 by @fontawesome - https://fontawesome.com License - https://fontawesome.com/license (Commercial License) Copyright 2023 Fonticons, Inc. --><path d="M278.6 192H368C374.5 192 380.3 195.9 382.8 201.9C385.3 207.9 383.9 214.7 379.3 219.3L283.3 315.3C277.1 321.6 266.9 321.6 260.7 315.3C254.4 309.1 254.4 298.9 260.7 292.7L329.4 223.1H240C233.5 223.1 227.7 220.1 225.2 214.1C222.7 208.1 224.1 201.3 228.7 196.7L324.7 100.7C330.9 94.44 341.1 94.44 347.3 100.7C353.6 106.9 353.6 117.1 347.3 123.3L278.6 192zM52.78 192.1L97.05 82.29C109.2 51.92 138.6 32 171.3 32H353.2C377.5 32 400.5 43.05 415.7 62.02L519.9 192.2C586.9 196.3 640 251.1 640 320V368C640 385.7 625.7 400 608 400H574.7C567.1 445.4 527.6 480 480 480C432.4 480 392.9 445.4 385.3 400H254.7C247.1 445.4 207.6 480 160 480C112.4 480 72.94 445.4 65.33 400H32C14.33 400 0 385.7 0 368V256C0 224.5 22.78 198.3 52.78 192.1H52.78zM87.63 192H160V224H64C46.33 224 32 238.3 32 256V368H65.33C72.94 322.6 112.4 288 160 288C207.6 288 247.1 322.6 254.7 368H385.3C392.9 322.6 432.4 288 480 288C527.6 288 567.1 322.6 574.7 368H608V320C608 266.1 565 224 512 224H448V192H478.7L390.7 82.01C381.6 70.63 367.8 64 353.2 64H171.3C151.7 64 134.1 75.95 126.8 94.17L87.63 192zM418 368C416.7 373.1 416 378.5 416 384C416 389.5 416.7 394.9 418 400C425.1 427.6 450.2 448 480 448C509.8 448 534.9 427.6 541.1 400C543.3 394.9 544 389.5 544 384C544 378.5 543.3 373.1 541.1 368C534.9 340.4 509.8 320 480 320C450.2 320 425.1 340.4 418 368V368zM98.02 400C105.1 427.6 130.2 448 160 448C189.8 448 214.9 427.6 221.1 400C223.3 394.9 224 389.5 224 384C224 378.5 223.3 373.1 221.1 368C214.9 340.4 189.8 320 160 320C130.2 320 105.1 340.4 98.02 368C96.7 373.1 96 378.5 96 384C96 389.5 96.7 394.9 98.02 400V400z"/></svg>
